X: 1
T: reel de Chalumet
C:
R: reel
Z: 2018 John Chambers <jc:trillian.mit.edu>
M: C|
L: 1/8
K: G
GA |:\
B2Bc dBGB | AGFE DFAc |\
A2FA DAFA |[1 ABcA  BGDG :|[2 GBAF G2 :|
|: DB, |\
G,B,DG BABd | efge |\
dBGB | cdec BcdB |\
[1 c{B}ABG AGDB, :|[2 c{B}AFA G2 :|
